icons/desktop/16/svg/sidebar-left-16.svg

<svg width="16" height="16" viewBox="0 0 16 16" fill="none" xmlns="http://www.w3.org/2000/svg">
<path d="M5.25 9C5.66421 9 6 9.33579 6 9.75C6 10.1642 5.66421 10.5 5.25 10.5H3.75C3.33579 10.5 3 10.1642 3 9.75C3 9.33579 3.33579 9 3.75 9H5.25Z" fill="black"/>
<path d="M5.25 5.5C5.66421 5.5 6 5.83579 6 6.25C6 6.66421 5.66421 7 5.25 7H3.75C3.33579 7 3 6.66421 3 6.25C3 5.83579 3.33579 5.5 3.75 5.5H5.25Z" fill="black"/>
<path fill-rule="evenodd" clip-rule="evenodd" d="M8 2C10.0011 2 11.8584 2.11265 13.5459 2.28809C14.9513 2.43465 16 3.62588 16 5.02539V10.9746C16 12.3897 14.9217 13.5696 13.5225 13.7148C11.5163 13.9228 9.66317 14 8 14C5.99888 14 4.14156 13.8874 2.4541 13.7119C1.04865 13.5653 0 12.3741 0 10.9746V5.02539C0 3.61027 1.07827 2.43044 2.47754 2.28516C4.48373 2.07723 6.33683 2 8 2ZM7.5 3.50586C6.01447 3.51996 4.38294 3.59488 2.63184 3.77637L2.63281 3.77734C1.99009 3.84407 1.5 4.38652 1.5 5.02539V10.9746C1.5 11.6189 1.9811 12.154 2.60938 12.2197C4.10845 12.3756 5.74502 12.4791 7.5 12.4961V3.50586ZM9 12.4873C10.3489 12.4614 11.8106 12.384 13.3672 12.2227C14.0099 12.1559 14.5 11.6135 14.5 10.9746V5.02539C14.5 4.38109 14.0189 3.84597 13.3906 3.78027C12.0348 3.63932 10.5666 3.54002 9 3.50977V12.4873Z" fill="black"/>
</svg>

<!-- This Source Code Form is subject to the terms of the Mozilla Public
   - License, v. 2.0. If a copy of the MPL was not distributed with this
   - file, You can obtain one at http://mozilla.org/MPL/2.0/. -->
<svg xmlns="http://www.w3.org/2000/svg" width="16" height="16" fill="context-fill" fill-opacity="context-fill-opacity" viewBox="0 0 16 16">
    <path d="M5.25 9a.75.75 0 0 1 0 1.5h-1.5a.75.75 0 0 1 0-1.5zM5.25 5.5a.75.75 0 0 1 0 1.5h-1.5a.75.75 0 0 1 0-1.5z" />
    <path fill-rule="evenodd" d="M8 2c2.001 0 3.858.113 5.546.288A2.746 2.746 0 0 1 16 5.025v5.95a2.76 2.76 0 0 1-2.477 2.74 53.6 53.6 0 0 1-11.069-.003A2.746 2.746 0 0 1 0 10.975v-5.95a2.76 2.76 0 0 1 2.478-2.74A54 54 0 0 1 8 2m-.5 1.506a52 52 0 0 0-4.868.27v.001A1.26 1.26 0 0 0 1.5 5.025v5.95c0 .644.481 1.179 1.11 1.245 1.498.156 3.135.26 4.89.276zM9 12.487a52 52 0 0 0 4.367-.264 1.26 1.26 0 0 0 1.133-1.248v-5.95c0-.644-.481-1.179-1.11-1.245A52 52 0 0 0 9 3.51z" clip-rule="evenodd" />
</svg>
